static/img/kroki/cb6d902963492070588f7807133e6f48.svg

<?xml version="1.0" encoding="us-ascii" standalone="no"?><svg xmlns="http://www.w3.org/2000/svg" xmlns:xlink="http://www.w3.org/1999/xlink" contentStyleType="text/css" height="252px" preserveAspectRatio="none" style="width:503px;height:252px;" version="1.1" viewBox="0 0 503 252" width="503px" zoomAndPan="magnify"><defs/><g><!--class digitalocean_project--><g id="elem_digitalocean_project"><rect codeLine="23" fill="#3D176E" height="39.7891" id="digitalocean_project" rx="2.5" ry="2.5" style="stroke:#000D19;stroke-width:0.5;" width="209" x="7" y="106.79"/><ellipse cx="22" cy="126.6845" fill="#ADD1B2" rx="11" ry="11" style="stroke:#181818;stroke-width:1.0;"/><path d="M24.9688,132.3252 Q24.3906,132.622 23.75,132.7627 Q23.1094,132.9189 22.4063,132.9189 Q19.9063,132.9189 18.5781,131.2783 Q17.2656,129.622 17.2656,126.497 Q17.2656,123.372 18.5781,121.7158 Q19.9063,120.0595 22.4063,120.0595 Q23.1094,120.0595 23.75,120.2158 Q24.4063,120.372 24.9688,120.6689 L24.9688,123.3877 Q24.3438,122.8095 23.75,122.5439 Q23.1563,122.2627 22.5313,122.2627 Q21.1875,122.2627 20.5,123.3408 Q19.8125,124.4033 19.8125,126.497 Q19.8125,128.5908 20.5,129.6689 Q21.1875,130.7314 22.5313,130.7314 Q23.1563,130.7314 23.75,130.4658 Q24.3438,130.1845 24.9688,129.6064 L24.9688,132.3252 Z " fill="#000000"/><text fill="#D9B8FF" font-family="Helvetica" font-size="17" lengthAdjust="spacing" textLength="167" x="41" y="132.5698">digitalocean_project</text></g><!--class digitalocean_region--><g id="elem_digitalocean_region"><rect codeLine="26" fill="#3D176E" height="39.7891" id="digitalocean_region" rx="2.5" ry="2.5" style="stroke:#000D19;stroke-width:0.5;" width="205" x="251" y="106.79"/><ellipse cx="266" cy="126.6845" fill="#ADD1B2" rx="11" ry="11" style="stroke:#181818;stroke-width:1.0;"/><path d="M268.9688,132.3252 Q268.3906,132.622 267.75,132.7627 Q267.1094,132.9189 266.4063,132.9189 Q263.9063,132.9189 262.5781,131.2783 Q261.2656,129.622 261.2656,126.497 Q261.2656,123.372 262.5781,121.7158 Q263.9063,120.0595 266.4063,120.0595 Q267.1094,120.0595 267.75,120.2158 Q268.4063,120.372 268.9688,120.6689 L268.9688,123.3877 Q268.3438,122.8095 267.75,122.5439 Q267.1563,122.2627 266.5313,122.2627 Q265.1875,122.2627 264.5,123.3408 Q263.8125,124.4033 263.8125,126.497 Q263.8125,128.5908 264.5,129.6689 Q265.1875,130.7314 266.5313,130.7314 Q267.1563,130.7314 267.75,130.4658 Q268.3438,130.1845 268.9688,129.6064 L268.9688,132.3252 Z " fill="#000000"/><text fill="#D9B8FF" font-family="Helvetica" font-size="17" lengthAdjust="spacing" textLength="163" x="285" y="132.5698">digitalocean_region</text></g><!--class digitalocean_space--><g id="elem_digitalocean_space"><rect codeLine="29" fill="#3D176E" height="39.7891" id="digitalocean_space" rx="2.5" ry="2.5" style="stroke:#000D19;stroke-width:0.5;" width="198" x="254.5" y="206.58"/><ellipse cx="269.5" cy="226.4745" fill="#ADD1B2" rx="11" ry="11" style="stroke:#181818;stroke-width:1.0;"/><path d="M272.4688,232.1152 Q271.8906,232.412 271.25,232.5527 Q270.6094,232.7089 269.9063,232.7089 Q267.4063,232.7089 266.0781,231.0683 Q264.7656,229.412 264.7656,226.287 Q264.7656,223.162 266.0781,221.5058 Q267.4063,219.8495 269.9063,219.8495 Q270.6094,219.8495 271.25,220.0058 Q271.9063,220.162 272.4688,220.4589 L272.4688,223.1777 Q271.8438,222.5995 271.25,222.3339 Q270.6563,222.0527 270.0313,222.0527 Q268.6875,222.0527 268,223.1308 Q267.3125,224.1933 267.3125,226.287 Q267.3125,228.3808 268,229.4589 Q268.6875,230.5214 270.0313,230.5214 Q270.6563,230.5214 271.25,230.2558 Q271.8438,229.9745 272.4688,229.3964 L272.4688,232.1152 Z " fill="#000000"/><text fill="#D9B8FF" font-family="Helvetica" font-size="17" lengthAdjust="spacing" textLength="156" x="288.5" y="232.3598">digitalocean_space</text></g><!--class digitalocean_team--><g id="elem_digitalocean_team"><rect codeLine="32" fill="#3D176E" height="39.7891" id="digitalocean_team" rx="2.5" ry="2.5" style="stroke:#000D19;stroke-width:0.5;" width="196" x="255.5" y="7"/><ellipse cx="270.5" cy="26.8945" fill="#ADD1B2" rx="11" ry="11" style="stroke:#181818;stroke-width:1.0;"/><path d="M273.4688,32.5352 Q272.8906,32.832 272.25,32.9727 Q271.6094,33.1289 270.9063,33.1289 Q268.4063,33.1289 267.0781,31.4883 Q265.7656,29.832 265.7656,26.707 Q265.7656,23.582 267.0781,21.9258 Q268.4063,20.2695 270.9063,20.2695 Q271.6094,20.2695 272.25,20.4258 Q272.9063,20.582 273.4688,20.8789 L273.4688,23.5977 Q272.8438,23.0195 272.25,22.7539 Q271.6563,22.4727 271.0313,22.4727 Q269.6875,22.4727 269,23.5508 Q268.3125,24.6133 268.3125,26.707 Q268.3125,28.8008 269,29.8789 Q269.6875,30.9414 271.0313,30.9414 Q271.6563,30.9414 272.25,30.6758 Q272.8438,30.3945 273.4688,29.8164 L273.4688,32.5352 Z " fill="#000000"/><text fill="#D9B8FF" font-family="Helvetica" font-size="17" lengthAdjust="spacing" textLength="154" x="289.5" y="32.7798">digitalocean_team</text></g><!--link digitalocean_project to digitalocean_space--><g id="link_digitalocean_project_digitalocean_space"><path codeLine="35" d="M159.31,147.01 C201.74,164.15 257.8273,186.8113 300.2273,203.9513 " fill="none" id="digitalocean_project-to-digitalocean_space" style="stroke:#1A83AF;stroke-width:2.0;"/><polygon fill="#1A83AF" points="305.79,206.2,298.9451,199.1185,301.1544,204.3261,295.9469,206.5354,305.79,206.2" style="stroke:#1A83AF;stroke-width:2.0;"/></g><!--link digitalocean_region to digitalocean_space--><g id="link_digitalocean_region_digitalocean_space"><path codeLine="36" d="M353.5,147.01 C353.5,164.15 353.5,183.06 353.5,200.2 " fill="none" id="digitalocean_region-to-digitalocean_space" style="stroke:#1A83AF;stroke-width:2.0;"/><polygon fill="#1A83AF" points="353.5,206.2,357.5,197.2,353.5,201.2,349.5,197.2,353.5,206.2" style="stroke:#1A83AF;stroke-width:2.0;"/></g><!--link digitalocean_team to digitalocean_project--><g id="link_digitalocean_team_digitalocean_project"><path codeLine="37" d="M305.69,47.22 C263.26,64.36 207.1727,87.0213 164.7727,104.1613 " fill="none" id="digitalocean_team-to-digitalocean_project" style="stroke:#1A83AF;stroke-width:2.0;"/><polygon fill="#1A83AF" points="159.21,106.41,169.0531,106.7454,163.8456,104.5361,166.0549,99.3285,159.21,106.41" style="stroke:#1A83AF;stroke-width:2.0;"/></g><!--link digitalocean_team to digitalocean_region--><g id="link_digitalocean_team_digitalocean_region"><path codeLine="38" d="M353.5,47.22 C353.5,64.36 353.5,83.27 353.5,100.41 " fill="none" id="digitalocean_team-to-digitalocean_region" style="stroke:#1A83AF;stroke-width:2.0;"/><polygon fill="#1A83AF" points="353.5,106.41,357.5,97.41,353.5,101.41,349.5,97.41,353.5,106.41" style="stroke:#1A83AF;stroke-width:2.0;"/></g><!--link digitalocean_team to digitalocean_space--><g id="link_digitalocean_team_digitalocean_space"><path codeLine="39" d="M403.99,47.18 C429.75,59.91 458.71,79.36 473.5,106.79 C496.03,148.57 447.3686,182.3409 404.6486,203.4609 " fill="none" id="digitalocean_team-to-digitalocean_space" style="stroke:#1A83AF;stroke-width:2.0;"/><polygon fill="#1A83AF" points="399.27,206.12,409.1106,205.7171,403.7522,203.9041,405.5652,198.5456,399.27,206.12" style="stroke:#1A83AF;stroke-width:2.0;"/></g><!--SRC=[bP9DJm8n48Rl-okQS2PXtIXmCLb9Y5w84M_6cA6TBfNTTZCT96ZyxmABfku7X6lVPsQUcNHf50eiIjwA0ei5ae_yojWI20gH4hdDnEMEH4zhqCcm7awTvRF030eKzvX_81i9TU9vQUJAelVYAeZkGAuoSckhglPCOFqkGii1DSd1-vIPp6BD6CYeyMAaTPsiD-qbAXxUO0Dpf92Eo60mKF6uZfmTTNBlFs9kFb74uT5cZh6XsHXne4vQxeb0ih7eRzxf-0XA6Pk9w-3jgN8YY_JlVRu4vJPxMaFkmp6UaT3njiH9OoiSZvGUji8FNN0azwSJocI68NSImRwLvDvHilYAek-sd30ppdR6krybiJDbt8aTmjQP_PTUd8wITFhQlsrf6xM9N5HpcDzTSVIugARIkAYa4li1]--></g></svg>

<svg xmlns="http://www.w3.org/2000/svg" width="503" height="252" viewBox="0 0 503 252"><rect width="209" height="39.789" x="7" y="106.79" fill="#3D176E" rx="2.5" ry="2.5" style="stroke:#000d19;stroke-width:.5"/><circle cx="22" cy="126.684" r="11" fill="#ADD1B2" style="stroke:#181818;stroke-width:1"/><path d="M24.969 132.325q-.578.297-1.219.438-.64.156-1.344.156-2.5 0-3.828-1.64-1.312-1.657-1.312-4.782t1.312-4.781q1.328-1.656 3.828-1.656.703 0 1.344.156.656.156 1.219.453v2.719q-.625-.579-1.219-.844-.594-.281-1.219-.281-1.343 0-2.031 1.078-.687 1.062-.687 3.156t.687 3.172q.688 1.062 2.031 1.062.625 0 1.219-.265.594-.281 1.219-.86z"/><text x="41" y="132.57" fill="#D9B8FF" font-family="Helvetica" font-size="17" textLength="167">digitalocean_project</text><rect width="205" height="39.789" x="251" y="106.79" fill="#3D176E" rx="2.5" ry="2.5" style="stroke:#000d19;stroke-width:.5"/><circle cx="266" cy="126.684" r="11" fill="#ADD1B2" style="stroke:#181818;stroke-width:1"/><path d="M268.969 132.325q-.578.297-1.219.438-.64.156-1.344.156-2.5 0-3.828-1.64-1.312-1.657-1.312-4.782t1.312-4.781q1.328-1.656 3.828-1.656.703 0 1.344.156.656.156 1.219.453v2.719q-.625-.579-1.219-.844-.594-.281-1.219-.281-1.344 0-2.031 1.078-.687 1.062-.687 3.156t.687 3.172q.688 1.062 2.031 1.062.625 0 1.219-.265.594-.281 1.219-.86z"/><text x="285" y="132.57" fill="#D9B8FF" font-family="Helvetica" font-size="17" textLength="163">digitalocean_region</text><rect width="198" height="39.789" x="254.5" y="206.58" fill="#3D176E" rx="2.5" ry="2.5" style="stroke:#000d19;stroke-width:.5"/><circle cx="269.5" cy="226.475" r="11" fill="#ADD1B2" style="stroke:#181818;stroke-width:1"/><path d="M272.469 232.115q-.578.297-1.219.438-.64.156-1.344.156-2.5 0-3.828-1.64-1.312-1.657-1.312-4.782t1.312-4.781q1.328-1.656 3.828-1.656.703 0 1.344.156.656.156 1.219.453v2.719q-.625-.578-1.219-.844-.594-.281-1.219-.281-1.344 0-2.031 1.078-.687 1.062-.687 3.156t.687 3.172q.688 1.062 2.031 1.062.625 0 1.219-.265.594-.281 1.219-.86z"/><text x="288.5" y="232.36" fill="#D9B8FF" font-family="Helvetica" font-size="17" textLength="156">digitalocean_space</text><rect width="196" height="39.789" x="255.5" y="7" fill="#3D176E" rx="2.5" ry="2.5" style="stroke:#000d19;stroke-width:.5"/><circle cx="270.5" cy="26.895" r="11" fill="#ADD1B2" style="stroke:#181818;stroke-width:1"/><path d="M273.469 32.535q-.578.297-1.219.438-.64.156-1.344.156-2.5 0-3.828-1.64-1.312-1.657-1.312-4.782t1.312-4.781q1.328-1.656 3.828-1.656.703 0 1.344.156.656.156 1.219.453v2.719q-.625-.578-1.219-.844-.594-.281-1.219-.281-1.344 0-2.031 1.078-.687 1.062-.687 3.156t.687 3.172q.688 1.062 2.031 1.062.625 0 1.219-.265.594-.281 1.219-.86z"/><text x="289.5" y="32.78" fill="#D9B8FF" font-family="Helvetica" font-size="17" textLength="154">digitalocean_team</text><path fill="none" d="M159.31 147.01c42.43 17.14 98.517 39.801 140.917 56.941" style="stroke:#1a83af;stroke-width:2"/><path fill="#1A83AF" d="m305.79 206.2-6.845-7.081 2.21 5.207-5.208 2.21z" style="stroke:#1a83af;stroke-width:2"/><path fill="none" d="M353.5 147.01v53.19" style="stroke:#1a83af;stroke-width:2"/><path fill="#1A83AF" d="m353.5 206.2 4-9-4 4-4-4z" style="stroke:#1a83af;stroke-width:2"/><path fill="none" d="M305.69 47.22c-42.43 17.14-98.517 39.801-140.917 56.941" style="stroke:#1a83af;stroke-width:2"/><path fill="#1A83AF" d="m159.21 106.41 9.843.335-5.207-2.209 2.209-5.207z" style="stroke:#1a83af;stroke-width:2"/><path fill="none" d="M353.5 47.22v53.19" style="stroke:#1a83af;stroke-width:2"/><path fill="#1A83AF" d="m353.5 106.41 4-9-4 4-4-4z" style="stroke:#1a83af;stroke-width:2"/><path fill="none" d="M403.99 47.18c25.76 12.73 54.72 32.18 69.51 59.61 22.53 41.78-26.131 75.55-68.851 96.67" style="stroke:#1a83af;stroke-width:2"/><path fill="#1A83AF" d="m399.27 206.12 9.84-.403-5.358-1.813 1.813-5.358z" style="stroke:#1a83af;stroke-width:2"/></svg>
